X: 25698
T: Maruxa
R: polka
M: 2/4
K: Gminor
|:GB|d>e dc|d/e/d/c/ Bd|c>d cB|c/d/c/B/ A/B/c/d/|
B>A G/A/B/c/|A>G ^F/G/A/B/|G>D B,A,|G,2:|
|:AG|^F>G AB/A/|G>A Bc|^F>G Ae|d4|
g>_a gf|e2 c/d/e/c/|f>g fe|d4|
A>B cB/A/|B/c/B/A/ G/A/B/G/|A/B/A/G/ ^F/G/A/B/|G2:|

